svg/device/alarm_1_fill.svg

<?xml version="1.0" encoding="UTF-8"?>
<svg width="24px" height="24px" viewBox="0 0 24 24" version="1.1" xmlns="http://www.w3.org/2000/svg" xmlns:xlink="http://www.w3.org/1999/xlink">
    <title>alarm_1_fill</title>
    <g id="页面-1" stroke="none" stroke-width="1" fill="none" fill-rule="evenodd">
        <g id="Device" transform="translate(-48.000000, -48.000000)" fill-rule="nonzero">
            <g id="alarm_1_fill" transform="translate(48.000000, 48.000000)">
                 <path d="M24,0 L24,24 L0,24 L0,0 L24,0 Z M12.5934901,23.257841 L12.5819402,23.2595131 L12.5108777,23.2950439 L12.4918791,23.2987469 L12.4918791,23.2987469 L12.4767152,23.2950439 L12.4056548,23.2595131 C12.3958229,23.2563662 12.3870493,23.2590235 12.3821421,23.2649074 L12.3780323,23.275831 L12.360941,23.7031097 L12.3658947,23.7234994 L12.3769048,23.7357139 L12.4804777,23.8096931 L12.4953491,23.8136134 L12.4953491,23.8136134 L12.5071152,23.8096931 L12.6106902,23.7357139 L12.6232938,23.7196733 L12.6232938,23.7196733 L12.6266527,23.7031097 L12.609561,23.275831 C12.6075724,23.2657013 12.6010112,23.2592993 12.5934901,23.257841 L12.5934901,23.257841 Z M12.8583906,23.1452862 L12.8445485,23.1473072 L12.6598443,23.2396597 L12.6498822,23.2499052 L12.6498822,23.2499052 L12.6471943,23.2611114 L12.6650943,23.6906389 L12.6699349,23.7034178 L12.6699349,23.7034178 L12.678386,23.7104931 L12.8793402,23.8032389 C12.8914285,23.8068999 12.9022333,23.8029875 12.9078286,23.7952264 L12.9118235,23.7811639 L12.8776777,23.1665331 C12.8752882,23.1545897 12.8674102,23.1470016 12.8583906,23.1452862 L12.8583906,23.1452862 Z M12.1430473,23.1473072 C12.1332178,23.1423925 12.1221763,23.1452606 12.1156365,23.1525954 L12.1099173,23.1665331 L12.0757714,23.7811639 C12.0751323,23.7926639 12.0828099,23.8018602 12.0926481,23.8045676 L12.108256,23.8032389 L12.3092106,23.7104931 L12.3186497,23.7024347 L12.3186497,23.7024347 L12.3225043,23.6906389 L12.340401,23.2611114 L12.337245,23.2485176 L12.337245,23.2485176 L12.3277531,23.2396597 L12.1430473,23.1473072 Z" id="MingCute" fill-rule="nonzero"></path>
                <path d="M17.4999,3 C19.4329,3 21,4.567 21,6.5 C21,7.44104 20.6286,8.2944 20.0256,8.92274 C20.6487,10.1468 21,11.5324 21,13 C21,15.6343 19.8682,18.0043 18.0644,19.6502 L18.7071,20.2929 C19.0976,20.6834 19.0976,21.3166 18.7071,21.7071 C18.3166,22.0976 17.6834,22.0976 17.2929,21.7071 L16.4248,20.839 C15.1181,21.5781 13.6083,22 12,22 C10.3917,22 8.88186,21.5781 7.57522,20.839 L6.70711,21.7071 C6.31658,22.0976 5.68342,22.0976 5.29289,21.7071 C4.90237,21.3166 4.90237,20.6834 5.29289,20.2929 L5.93563,19.6502 C4.13179,18.0043 3,15.6343 3,13 C3,11.5324 3.35129,10.1468 3.97437,8.92277 C3.37198,8.29481 3,7.44083 3,6.5 C3,4.567 4.567,3 6.5,3 C7.65054,3 8.67018,3.55535 9.30735,4.40972 C10.1575,4.14349 11.062,4 12,4 C12.938,4 13.8424,4.14349 14.6926,4.40972 C15.3302,3.5548 16.3495,3 17.4999,3 Z M12.0001,8 C11.48725,8 11.0645908,8.38604429 11.0068275,8.88337975 L11.0001,9 L11.0001,12.9863 C10.9971833,13.2033833 11.064475,13.4212306 11.201975,13.6028046 L11.2929,13.7071 L13.3983,15.8125 C13.7889,16.2031 14.422,16.2031 14.8125,15.8125 C15.1730538,15.4520385 15.2007888,14.8848645 14.8957047,14.4925224 L14.8125,14.3983 L13.0001,12.5859 L13.0001,9 C13.0001,8.44772 12.5524,8 12.0001,8 Z" id="形状" fill="#09244B"></path>
            </g>
        </g>
    </g>
</svg>

<svg xmlns="http://www.w3.org/2000/svg" width="24" height="24"><g fill="none" fill-rule="nonzero"><path d="M24 0v24H0V0h24ZM12.593 23.258l-.011.002-.071.035-.02.004-.014-.004-.071-.035c-.01-.004-.019-.001-.024.005l-.004.01-.017.428.005.02.01.013.104.074.015.004.012-.004.104-.074.012-.016.004-.017-.017-.427c-.002-.01-.009-.017-.017-.018Zm.265-.113-.013.002-.185.093-.01.01-.003.011.018.43.005.012.008.007.201.093c.012.004.023 0 .029-.008l.004-.014-.034-.614c-.003-.012-.01-.02-.02-.022Zm-.715.002a.023.023 0 0 0-.027.006l-.006.014-.034.614c0 .012.007.02.017.024l.015-.002.201-.093.01-.008.004-.011.017-.43-.003-.012-.01-.01-.184-.092Z"/><path fill="#09244B" d="M17.5 3a3.5 3.5 0 0 1 2.526 5.923A8.962 8.962 0 0 1 21 13a8.977 8.977 0 0 1-2.936 6.65l.643.643a1 1 0 0 1-1.414 1.414l-.868-.868A8.96 8.96 0 0 1 12 22a8.96 8.96 0 0 1-4.425-1.161l-.868.868a1 1 0 0 1-1.414-1.414l.643-.643A8.977 8.977 0 0 1 3 13c0-1.468.351-2.853.974-4.077A3.5 3.5 0 1 1 9.307 4.41 8.996 8.996 0 0 1 12 4c.938 0 1.842.143 2.693.41A3.494 3.494 0 0 1 17.5 3ZM12 8a1 1 0 0 0-.993.883L11 9v3.986a.998.998 0 0 0 .202.617l.09.104 2.106 2.105a1 1 0 0 0 1.498-1.32l-.084-.094L13 12.586V9a1 1 0 0 0-1-1Z"/></g></svg>
